X: 126007
T: The STEAM BOAT
%R: reel
B: James Kerr "Merry Melodies" v.1 p.26 s.0 #7
Z: 2017 John Chambers <jc:trillian.mit.edu>
N: Added missing bar line between bars 1,2.
M: 2/4
L: 1/16
K: G
ud2 |\
g2bg d2gd | BcdB G2B2 |\
c2ec A2cA | FGAB cdef |\
g2bg d2gd | BcdB G2(AB) |\
cedc BAGF | A2G2G2 :|
|: (Bc) |\
d2(d^c) dBGB | c2(cB) cAFA |\
GABc    defg | fgag  fed^c |\
d2(d^c) dBGB | c2(cB) cAFA |\
cedc    BAGF | A2G2G2 :|

%%sep 1 1 500
%%sep 1 1 500

